!!!OTL: 255. Das Murmelthier.
!!!ARE: Europa, Mitteleuropa, Deutschland, Kassel, Kirchditmold
!!!SCT: K2255
!!!TXL: @@DE
!!!YEM: Copyright 1995, estate of Helmut Schaffrath.
**kern	**text
*clefG2	*
*M2/4	*
*k[f#]	*
*G:	*
=1	=1
{8g	1._Als
8g	ich
8g	ein-
8g	-mal
=2	=2
8gL	rei-
8bJ	.
4b}	-ſte,
=3	=3
{8b	reiſt'
8a	ich
8a	durch
8a	Di-
=4	=4
8cc	-ral-
8b	-lal-
4b}	-la,
=5	=5
{8g	und
8g	ich
8g	war
8g	der
=6	=6
8gL	Klein-
8bJ	.
4b}	-ſte,
=7	=7
{8b	al-
8a	-len
8a	wohl
8a	be-
=8	=8
4g	-kannt.
4r}	.
==	==
!!!AGN: Kinder - Lied, Reigen, Tanz, Nachahmungs - Spiel
!!!ONB: ESAC (Essen Associative Code) Database: KINDER
!!!AMT: simple duple
!!!AIN: vox
!!!EED: Helmut Schaffrath
!!!EEV: 1.0
!!Aus Kirchditmold bei Kassel: Lewalter V. Nr. 61.
!!!GTL: Zweites Buch. Kinderspiel: 2. Reigen und Tanzspiele. / E. Reigenspiele mit Nachahmungen.
!!@@COMMENT:"Die Kinder bilden einen Kreis und fingen, indem ſie erſt langſam herumgehen. Bei der 2. Str. (" Herren und Damen*) laſſen ſie die Hände los und 
!!marſchieren hintereinander her. Bei der 3. Str. ("Murmelthier*) laufen ſie ſo ſchnell als möglich. [...]"
!!@@END:
!!!URL-scan: https://archive.org/details/DeutschesKinderliedUndKinderspiel/page/502/mode/1up
!!!ENC: Anna Maria Matuszewska
!!!EEV: 2024/04/09
*-	*-
